X:1
T:James Gibb editions
T:James Gibb editions
T:James Gibb editions
T:Psalm 22-1 (Becker) - Schütz
%%score [ ( 1 2 ) ( 3 4 ) ]
L:1/8
Q:1/4=90
M:2/2
K:C
V:1 treble nm="Soprano Alto"
V:2 treble 
V:3 bass nm="Tenor Bass"
V:4 bass 
V:1
"^Cornelius Becker\n(1561-1604)""^Psalm 22 pt 1, SWV 118""^Heinrich Schütz\n(1585-1672)" A4 _B2 A2 | %1
w: ~Mein Gott, mein|
 c2 B2 d2 c2 | B4 B4 | c2 d2 c2 B2 | (cB) A2 G4 |[M:2/2] E4 F2 G2 | (A>Bc)A (GF G2) | A4 c4 | %8
w: Gott, ach Herr, mein|Gott, wa-|rum hast mich in|mei\- * ner Not|so ganz und|gar * * ver- las\- * *|sen? Ich|
 G2 A2 _B2 || A2 | A2 G2 A4 | c4 d2 e2 | f2 d2 e4 | d8 |] %14
w: heul vor Leid,|da|ist kein Gnad,|mein Schmerz ist|üb'r die Ma-|ßen.|
V:2
 D4 D2 D2 | E2 E2 D2 E2 | E4 E4 | E2 F2 F2 D2 | (ED) D2 D4 |[M:2/2] C4 A,2 C2 | C3 F (E F2 E) | %7
w: |||||||
w: |||||||
 F4 F4 | E2 F2 G2 || C2 | D2 G2 E4 | E4 A2 G2 | F3/2 (E/4F/4) (G3 F E2) | ^F8 |] %14
w: |||||||
w: ||da|ist kein Gnad,|mein Schmerz ist|üb'r die * Ma\- * *|ßen.|
V:3
 ^F,4 G,2 !courtesy!^F,2 | A,2 ^G,2 B,2 A,2 | ^G,4 G,4 | A,2 A,2 A,2 G,2 | G,3 ^F, G,4 | %5
w: ||||mei- ner Not|
[M:2/2] G,4 F,2 E,2 | (F,>G,A,)C (CA, C2) | C4 A,4 | C2 C2 D2 || %9
w: ||||
"^2. Mein Gott, des Tags ruf ich zu dir, Gehör willt du nicht geben mir,\ndes Nachts kann ich nicht schweigen, wenn du uns hilfst, du frommer Gott,\nwird's zu dein'm Lob gereichen.\n\n3. Auf dich der Väter Hoffnung stund, sie trauten dir von Herzensgrund,\nda war dein Hülf vorhanden, als sie riefen, war Rettung da,\nsie wurden nicht zu Schanden.\n\n14. In schwerer Not ruf ich zu dir, ach Herr, sei du nicht fern von mir,\neil, bald mich zu erretten, damit ja nicht ihr mörd'risch Schwert\nmein arme Seel mög töten." F2 | %10
w: da|
 F2 (ED) ^C4 | A,4 A,2 C2 | A,2 D2 (^C D2 C) | D8 |] %14
w: ist kein * Gnad,|mein Schmerz ist|üb'r die Ma\- * *|ßen.|
V:4
 D,4 G,,2 D,2 | A,,2 E,2 B,,2 C,2 | E,4 E,4 | A,,2 D,2 F,2 G,2 | (C,G,,) D,2 G,,4 | %5
w: ||||mei\- * ner Not|
[M:2/2] C,4 D,2 C,2 | F,3 F, (C,D, C,2) | F,4 F,4 | C,2 A,,2 G,,2 || F,2 | _B,2 B,2 A,4 | %11
w: ||||da|ist kein Gnad,|
 A,4 F,2 E,2 | D,2 _B,2 A,4 | D,8 |] %14
w: mein Schmerz ist|üb'r die Ma-|ßen.|

